X: 1
T: Megumi's Gift
M: 4/4
L: 1/8
R: reel
K: Bmin
|: FABd B2 dB | B2 dB BAFE | FABF E3F | DFAF (3Bcd BA |
FABd B2 dB | B2 dB BAFE | FABd e2 de | f3a e2 e2 :|
|: f3a e2 fe | dBAB dBde | f3a e2 fe | dBAB d2 de |
f3a e2 dB | B2 dB BAFE | FABd e2 de | f3a e2 e2  :|
